X: 131
T:The Killavil Jig (or Sligo Jig)
M:6/8
L:1/8
F:http://blackrosetheband.googlepages.com/ABCTUNES.ABC May 2009
C:Trad.
S:Dervish
K:Em
d2^c|:"Em"BEE BEE|Bdf edB|"D"BAF FGF|"(Bm)"DFA dBA|
"Em"BEE BEE|Bdf edB|"D"BAF dAF|1 "(Bm)"FED "Em"E3:|2 FED "Em"E2B
|:eef gag|fgf edB|"D"BAF FGF|"(Bm)"DFA dBA|
"Em"Bef gfe|fed edB|"D"BAF dAF|1 FED "Em"E2B:|2 FED "Em"Ed^c||

